dist/img/icons/compare-orange.svg

<svg width="25" height="16" viewBox="0 0 25 16" fill="none" xmlns="http://www.w3.org/2000/svg">
<path d="M12.0053 5.63114V5.73114H12.1053H13.1053H13.2053V5.63114V3.42422H17.7854L13.9645 9.71257H13.2051H13.1051V9.81257V10.8126C13.1051 11.436 13.2714 12.0401 13.5765 12.5865C13.8802 13.1306 14.3118 13.6012 14.8264 13.9831C15.341 14.3648 15.9362 14.6566 16.573 14.8523C17.2101 15.0481 17.8861 15.147 18.5643 15.147C19.2425 15.147 19.9185 15.0481 20.5557 14.8523C21.1924 14.6566 21.7876 14.3648 22.3022 13.9831C22.8168 13.6012 23.2484 13.1306 23.5522 12.5865C23.8572 12.0401 24.0235 11.436 24.0235 10.8126V9.81257V9.71257H23.9235H23.0108L19.19 3.42422H22.8049H22.9049V3.32422V2.32422V2.22422H22.8049H13.2053V1V0.9H13.1053H12.1053H12.0053V1V2.22422H2.11858H2.01858V2.32422V3.32422V3.42422H2.11858H5.58024L1.75939 9.71257H1H0.9V9.81257V10.8126C0.9 11.436 1.06629 12.0401 1.37135 12.5865C1.6751 13.1306 2.10667 13.6012 2.62132 13.9831C3.13585 14.3648 3.73109 14.6566 4.36784 14.8523C5.00502 15.0481 5.68102 15.147 6.35919 15.147C7.03735 15.147 7.71336 15.0481 8.35053 14.8523C8.98728 14.6566 9.58252 14.3648 10.0971 13.9831C10.6117 13.6012 11.0433 13.1306 11.347 12.5865C11.6521 12.0401 11.8184 11.436 11.8184 10.8126V9.81257V9.71257H11.7184H10.8057L6.98486 3.42422H12.0053V5.63114ZM2.30517 11.7724C2.20817 11.5511 2.14517 11.3229 2.11701 11.092H10.6014C10.5732 11.3229 10.5102 11.5511 10.4132 11.7724C10.3794 11.8497 10.3414 11.9261 10.2992 12.0016C10.0879 12.3802 9.77681 12.7264 9.38201 13.0194C8.9872 13.3123 8.51707 13.5457 7.998 13.7052C7.47896 13.8647 6.92203 13.947 6.35919 13.947C5.79634 13.947 5.23941 13.8647 4.72038 13.7052C4.2013 13.5457 3.73117 13.3123 3.33636 13.0194C2.94156 12.7264 2.63051 12.3802 2.41914 12.0016C2.37702 11.9261 2.33902 11.8497 2.30517 11.7724ZM14.3221 11.092H22.8065C22.7783 11.3229 22.7153 11.5511 22.6183 11.7724C22.5845 11.8497 22.5465 11.9262 22.5044 12.0016C22.293 12.3802 21.9819 12.7264 21.5871 13.0194C21.1923 13.3123 20.7222 13.5457 20.2031 13.7052C19.6841 13.8647 19.1272 13.947 18.5643 13.947C18.0015 13.947 17.4445 13.8647 16.9255 13.7052C16.4064 13.5457 15.9363 13.3123 15.5415 13.0194C15.1467 12.7264 14.8356 12.3802 14.6243 12.0016C14.5821 11.9261 14.5441 11.8497 14.5103 11.7724C14.4133 11.5511 14.3503 11.3229 14.3221 11.092ZM6.28255 4.5793L9.40156 9.71257H3.16354L6.28255 4.5793ZM15.3687 9.71257L18.4877 4.5793L21.6067 9.71257H15.3687Z" fill="#FF5500" stroke="#FF5500" stroke-width="0.2"/>
</svg>

<svg width="25" height="16" fill="none" xmlns="http://www.w3.org/2000/svg"><path d="M12.005 5.631v.1h1.2V3.424h4.58l-3.82 6.289h-.86v1.1c0 .623.166 1.227.471 1.773a4.463 4.463 0 001.25 1.397c.515.382 1.11.674 1.747.87a6.8 6.8 0 001.991.294 6.8 6.8 0 001.992-.295 5.783 5.783 0 001.746-.869 4.464 4.464 0 001.25-1.397c.305-.546.471-1.15.471-1.773v-1.1h-1.012L19.19 3.424h3.715v-1.2h-9.7V.9h-1.2v1.324H2.02v1.2h3.56L1.76 9.713H.9v1.1c0 .623.166 1.227.471 1.773a4.463 4.463 0 001.25 1.397c.515.382 1.11.674 1.747.87a6.802 6.802 0 001.991.294c.678 0 1.354-.099 1.992-.295a5.783 5.783 0 001.746-.869 4.463 4.463 0 001.25-1.397c.305-.546.471-1.15.471-1.773v-1.1h-1.012L6.985 3.424h5.02v2.207zm-9.7 6.141a2.423 2.423 0 01-.188-.68h8.484a2.425 2.425 0 01-.302.91 3.265 3.265 0 01-.917 1.017 4.582 4.582 0 01-1.384.686 5.602 5.602 0 01-1.639.242c-.563 0-1.12-.082-1.639-.242a4.595 4.595 0 01-1.384-.686 3.266 3.266 0 01-.917-1.017 2.663 2.663 0 01-.114-.23zm12.017-.68h8.485a2.425 2.425 0 01-.303.91 3.266 3.266 0 01-.917 1.017 4.582 4.582 0 01-1.384.686 5.601 5.601 0 01-1.639.242c-.563 0-1.12-.082-1.639-.242a4.595 4.595 0 01-1.384-.686 3.265 3.265 0 01-.917-1.017 2.425 2.425 0 01-.302-.91zm-8.04-6.513l3.12 5.134H3.164l3.119-5.134zm9.087 5.134l3.119-5.134 3.119 5.134h-6.238z" fill="#F50" stroke="#F50" stroke-width=".2"/></svg>
